docs/assets/icons/devices.svg

<?xml version="1.0" encoding="UTF-8"?>
<svg version="1.1" viewBox="0 0 24 18" xmlns="http://www.w3.org/2000/svg"><g transform="matrix(1.0781 0 0 1.0781 -.93668 -3.9367)"><path d="m22 8h-6c-.5 0-1 .5-1 1v10c0 .5.5 1 1 1h6c.5 0 1-.5 1-1v-10c0-.5-.5-1-1-1m-1 10h-4v-8h4z" fill="#0091eb"/><path d="m13 12h-4v1.78c-.61.55-1 1.33-1 2.22s.39 1.67 1 2.22v1.78h4v-1.78c.61-.55 1-1.34 1-2.22s-.39-1.67-1-2.22v-1.78m-2 5.5c-.83 0-1.5-.67-1.5-1.5s.67-1.5 1.5-1.5 1.5.67 1.5 1.5-.67 1.5-1.5 1.5" fill="#0091eb"/><path d="m3 6h18v-2h-18c-1.1 0-2 .9-2 2v12c0 1.1.9 2 2 2h4v-2h-4v-12" fill="#4cae4f"/></g></svg>

<?xml version="1.0" encoding="UTF-8" standalone="no"?>
<svg
   id="mdi-devices"
   viewBox="0 0 24 18"
   version="1.1"
   sodipodi:docname="devices.svg"
   inkscape:version="1.4.3 (0d15f75042, 2025-12-25)"
   width="24"
   height="18"
   xmlns:inkscape="http://www.inkscape.org/namespaces/inkscape"
   xmlns:sodipodi="http://sodipodi.sourceforge.net/DTD/sodipodi-0.dtd"
   xmlns="http://www.w3.org/2000/svg"
   xmlns:svg="http://www.w3.org/2000/svg">
  <defs
     id="defs1" />
  <sodipodi:namedview
     id="namedview1"
     pagecolor="#505050"
     bordercolor="#ffffff"
     borderopacity="1"
     inkscape:showpageshadow="0"
     inkscape:pageopacity="0"
     inkscape:pagecheckerboard="1"
     inkscape:deskcolor="#505050"
     inkscape:zoom="24.166667"
     inkscape:cx="11.048276"
     inkscape:cy="8.3172413"
     inkscape:window-width="2560"
     inkscape:window-height="1368"
     inkscape:window-x="0"
     inkscape:window-y="0"
     inkscape:window-maximized="1"
     inkscape:current-layer="mdi-devices" />
  <g
     id="g6"
     transform="matrix(1.0780565,0,0,1.0780565,-0.936678,-3.936678)">
    <path
       d="m 22,8 h -6 c -0.5,0 -1,0.5 -1,1 v 10 c 0,0.5 0.5,1 1,1 h 6 c 0.5,0 1,-0.5 1,-1 V 9 C 23,8.5 22.5,8 22,8 m -1,10 h -4 v -8 h 4 z"
       id="path2"
       sodipodi:nodetypes="cssssssscccccc"
       style="display:inline;fill:#0091eb;fill-opacity:1" />
    <path
       d="M 13,12 H 9 v 1.78 C 8.39,14.33 8,15.11 8,16 c 0,0.89 0.39,1.67 1,2.22 V 20 h 4 v -1.78 c 0.61,-0.55 1,-1.34 1,-2.22 0,-0.88 -0.39,-1.67 -1,-2.22 V 12 m -2,5.5 c -0.83,0 -1.5,-0.67 -1.5,-1.5 0,-0.83 0.67,-1.5 1.5,-1.5 0.83,0 1.5,0.67 1.5,1.5 0,0.83 -0.67,1.5 -1.5,1.5"
       id="path4"
       sodipodi:nodetypes="cccsccccscccsssc"
       style="display:inline;fill:#0091eb;fill-opacity:1" />
    <path
       d="M 3,6 H 21 V 4 H 3 C 1.9,4 1,4.9 1,6 v 12 c 0,1.1 0.9,2 2,2 H 7 V 18 H 3 V 6"
       id="path3"
       sodipodi:nodetypes="cccsssscccc"
       style="display:inline;fill:#4cae4f;fill-opacity:1" />
  </g>
</svg>
